packages/foundations/assets/icons/functional/images/food/breakfast_28.svg

<svg width="28" height="28" viewBox="0 0 28 28" fill="none" xmlns="http://www.w3.org/2000/svg">
<g clip-path="url(#clip0_185_1034)">
<path fill-rule="evenodd" clip-rule="evenodd" d="M11.0271 2.95679C12.2826 3.68167 12.7128 5.28709 11.9879 6.54261L11.1187 8.04717L11.4972 8.26673C11.8202 8.45325 11.9895 8.82406 11.9188 9.19033L11.6288 10.6897C12.0466 10.641 12.4131 10.8877 12.5518 11.2357L13.0534 13.0847C13.1785 13.5515 12.9015 14.0313 12.4347 14.1563C12.0013 14.2725 11.5566 14.0419 11.3952 13.6347L11.0802 12.4785L3.59761 12.9616C3.40536 14.7647 4.04837 17.7121 5.34616 19.4873L10.0579 17.1608C10.4905 16.9454 11.0158 17.1214 11.2313 17.5539C11.4314 17.9556 11.2939 18.4372 10.9269 18.6765C9.28576 19.51 8.12933 20.088 7.45761 20.4106C8.10417 21.9468 9.04093 22.9752 10.2679 23.496C10.5022 23.0518 11.055 22.896 11.4656 23.1209C11.8763 23.3457 12.0291 23.8318 11.8553 24.2339L11.4415 24.9625C11.252 25.2907 10.8736 25.4453 10.5022 25.381C8.08678 24.9625 6.57128 22.7149 5.87643 21.1771L5.48676 21.3706C5.13305 21.5455 4.70329 21.4714 4.44426 21.1668C2.34204 18.7208 1.42094 14.3884 1.97704 11.959C2.05595 11.6142 2.3266 11.3394 2.67233 11.2744L3.21252 11.2342C3.10709 9.34685 3.10709 7.03104 5.11537 5.28114C5.39864 5.03432 5.81038 4.98347 6.1389 5.17314L6.57128 5.42305L7.44128 3.91761C8.16615 2.66209 9.77158 2.23192 11.0271 2.95679ZM23.557 15.9621C25.0067 15.9621 26.182 17.1373 26.182 18.5871C26.182 19.985 25.0892 21.1278 23.7112 21.2076L22.6639 21.212C22.6192 21.9387 22.4884 22.4198 22.228 22.9068C21.9176 23.4871 21.457 23.9477 20.8767 24.258C20.2988 24.5671 19.7292 24.6937 18.7477 24.7102L17.0562 24.7121C16.0951 24.7121 15.4637 24.5797 14.8622 24.258C14.282 23.9477 13.8213 23.4871 13.511 22.9068C13.2161 22.3555 13.0804 21.779 13.0598 20.9464L13.057 17.9588C13.057 17.471 13.1135 17.1782 13.2773 16.872C13.4351 16.577 13.6719 16.3401 13.967 16.1823C14.2348 16.0391 14.4926 15.9779 14.8795 15.9648L23.557 15.9621ZM20.932 17.7121H14.807V20.7128C14.807 21.4051 14.8808 21.7573 15.0542 22.0815C15.2014 22.3568 15.4122 22.5676 15.6875 22.7149C15.9793 22.8709 16.2937 22.9463 16.8584 22.9598L18.8764 22.9571C19.4802 22.9388 19.766 22.8675 20.0514 22.7149C20.3267 22.5676 20.5376 22.3568 20.6848 22.0815C20.8222 21.8246 20.8937 21.5675 20.92 21.0784L20.932 17.7121ZM23.557 17.7121H22.682V19.4621H23.557C24.0402 19.4621 24.432 19.0703 24.432 18.5871C24.432 18.1038 24.0402 17.7121 23.557 17.7121ZM16.557 11.5871C17.0402 11.5871 17.432 11.9788 17.432 12.4621V13.3371C17.432 13.8203 17.0402 14.2121 16.557 14.2121C16.0737 14.2121 15.682 13.8203 15.682 13.3371V12.4621C15.682 11.9788 16.0737 11.5871 16.557 11.5871ZM19.182 10.7121C19.6652 10.7121 20.057 11.1038 20.057 11.5871V13.3371C20.057 13.8203 19.6652 14.2121 19.182 14.2121C18.6987 14.2121 18.307 13.8203 18.307 13.3371V11.5871C18.307 11.1038 18.6987 10.7121 19.182 10.7121ZM5.85621 7.03104C4.63135 8.63235 4.89158 10.2842 4.96487 11.1099L9.82453 10.806L10.0833 9.47095L5.85621 7.03104ZM8.95682 4.79261L8.08678 6.29805L9.60316 7.17305L10.4724 5.66761C10.714 5.2491 10.5706 4.71396 10.1521 4.47234C9.73359 4.23071 9.19845 4.3741 8.95682 4.79261Z" fill="#1A1C1F"/>
</g>
<defs>
<clipPath id="clip0_185_1034">
<rect width="28" height="28" fill="white"/>
</clipPath>
</defs>
</svg>

<svg xmlns="http://www.w3.org/2000/svg" width="28" height="28" fill="none"><g clip-path="url(#a)"><path fill="#1A1C1F" fill-rule="evenodd" d="M11.027 2.957a2.625 2.625 0 0 1 .96 3.586l-.868 1.504.378.22a.875.875 0 0 1 .422.923l-.29 1.5a.88.88 0 0 1 .923.546l.501 1.849a.875.875 0 0 1-1.658.55l-.315-1.156-7.482.483c-.193 1.803.45 4.75 1.748 6.525l4.712-2.326a.875.875 0 0 1 .869 1.515 203 203 0 0 1-3.47 1.735q.97 2.304 2.81 3.085a.89.89 0 0 1 1.199-.375c.41.225.563.71.39 1.113l-.415.728a.9.9 0 0 1-.939.419c-2.415-.419-3.93-2.666-4.626-4.204l-.39.194a.86.86 0 0 1-1.042-.204c-2.102-2.446-3.023-6.779-2.467-9.208a.89.89 0 0 1 .695-.684l.54-.04C3.108 9.346 3.108 7.03 5.116 5.28a.89.89 0 0 1 1.024-.108l.432.25.87-1.505a2.625 2.625 0 0 1 3.586-.961m12.53 13.005a2.625 2.625 0 0 1 .154 5.246l-1.047.004c-.045.727-.176 1.208-.436 1.695a3.26 3.26 0 0 1-1.351 1.351c-.578.31-1.148.436-2.13.452l-1.69.002c-.962 0-1.593-.132-2.195-.454a3.26 3.26 0 0 1-1.351-1.351c-.295-.552-.43-1.128-.451-1.96l-.003-2.988c0-.488.056-.78.22-1.087a1.67 1.67 0 0 1 .69-.69c.268-.143.526-.204.912-.217zm-2.625 1.75h-6.125v3c0 .693.074 1.045.247 1.37q.22.413.633.633c.292.156.607.231 1.171.245l2.018-.003c.604-.018.89-.09 1.175-.242a1.5 1.5 0 0 0 .634-.634c.137-.256.209-.514.235-1.003zm2.625 0h-.875v1.75h.875a.875.875 0 0 0 0-1.75m-7-6.125c.483 0 .875.392.875.875v.875a.875.875 0 0 1-1.75 0v-.875c0-.483.392-.875.875-.875m2.625-.875c.483 0 .875.392.875.875v1.75a.875.875 0 0 1-1.75 0v-1.75c0-.483.392-.875.875-.875M5.856 7.031c-1.225 1.601-.964 3.253-.891 4.079l4.86-.304.258-1.335zm3.1-2.238-.87 1.505 1.517.875.87-1.505a.875.875 0 0 0-1.516-.875" clip-rule="evenodd"/></g><defs><clipPath id="a"><path fill="#fff" d="M0 0h28v28H0z"/></clipPath></defs></svg>
